lib/brands/logos/atlassian.svg

<svg xmlns="http://www.w3.org/2000/svg" fill="none" aria-hidden="true" viewBox="0 0 287 41"><g id="Atlassian"><g id="Group"><g id="Group_2"><path id="Vector" fill="url(#paint0_linear_93_14359)" d="M15.8391 19.0012C15.7388 18.8699 15.6063 18.7667 15.4544 18.7016C15.3026 18.6365 15.1365 18.6117 14.9722 18.6295C14.808 18.6474 14.6511 18.7073 14.5168 18.8035C14.3825 18.8997 14.2752 19.0289 14.2055 19.1786L5.92757 35.7292C5.85216 35.8801 5.81655 36.0477 5.82414 36.2162C5.83172 36.3846 5.88223 36.5483 5.97089 36.6918C6.05954 36.8353 6.18339 36.9537 6.33068 37.0358C6.47796 37.1179 6.6438 37.161 6.81243 37.1611H18.339C18.5236 37.1653 18.7055 37.1159 18.8625 37.0189C19.0196 36.9218 19.1451 36.7812 19.2238 36.6141C21.7102 31.4762 20.2034 23.664 15.8391 19.0012Z"/><path id="Vector_2" fill="#2684FF" d="M21.9104 3.9476C19.8478 7.1213 18.6458 10.7768 18.4224 14.5552C18.1989 18.3337 18.9617 22.1053 20.6359 25.5L26.193 36.6141C26.2751 36.7784 26.4014 36.9167 26.5577 37.0133C26.714 37.1099 26.8941 37.1611 27.0779 37.1611H38.6023C38.7709 37.1611 38.9368 37.1179 39.0841 37.0358C39.2313 36.9537 39.3552 36.8353 39.4439 36.6918C39.5325 36.5484 39.583 36.3846 39.5906 36.2162C39.5982 36.0477 39.5626 35.8801 39.4872 35.7292C39.4872 35.7292 23.9829 4.71707 23.5932 3.94139C23.5162 3.7835 23.3962 3.65052 23.2471 3.55771C23.0979 3.4649 22.9256 3.41601 22.7499 3.41666C22.5742 3.41731 22.4023 3.46747 22.2538 3.56138C22.1053 3.65529 21.9863 3.78915 21.9104 3.9476V3.9476Z"/></g><g id="Union"><path fill="#0052CC" d="M157.086 17.218C157.086 21.3163 158.988 24.5701 166.424 26.0066C170.861 26.938 171.79 27.6542 171.79 29.1331C171.79 30.5696 170.859 31.4995 167.734 31.4995C163.957 31.4316 160.256 30.43 156.96 28.5841V35.2594C159.199 36.358 162.157 37.5833 167.649 37.5833C175.424 37.5833 178.509 34.1163 178.509 28.9639C178.509 24.1049 175.931 21.8229 168.664 20.2601C164.65 19.3727 163.678 18.4858 163.678 17.218C163.678 15.6138 165.114 14.9365 167.776 14.9365C170.988 14.9365 174.157 15.9083 177.156 17.2604V10.8801C174.28 9.57086 171.147 8.92129 167.987 8.97889C160.804 8.97889 157.086 12.1054 157.086 17.218Z"/><path fill="#0052CC" d="M256.966 9.40115V37.1611H262.881V15.9926L265.375 21.6118L273.74 37.1611H281.177V9.40115H275.262V27.3163L273.022 22.1189L266.304 9.40115H256.966Z"/><path fill="#0052CC" d="M212.879 9.40115H219.343V37.1611H212.879V9.40115Z"/><path fill="#0052CC" d="M205.42 28.9639C205.42 24.1049 202.842 21.8229 195.575 20.2601C191.561 19.3727 190.589 18.4858 190.589 17.218C190.589 15.6138 192.026 14.9365 194.687 14.9365C197.899 14.9365 201.068 15.9083 204.068 17.2604V10.8801C201.191 9.57086 198.058 8.92129 194.899 8.97889C187.716 8.97889 183.998 12.1054 183.998 17.218C183.998 21.3163 185.899 24.5701 193.335 26.0066C197.772 26.938 198.701 27.6542 198.701 29.1331C198.701 30.5696 197.77 31.4995 194.645 31.4995C190.868 31.4316 187.167 30.43 183.871 28.5841V35.2594C186.11 36.358 189.068 37.5833 194.561 37.5833C202.335 37.5833 205.42 34.1163 205.42 28.9639Z"/><path fill="#0052CC" d="M106.867 37.1611V9.40115H113.373V31.1611H122.246L120.154 37.1611H106.867Z"/><path fill="#0052CC" d="M80.6147 9.40115V15.4006H87.7977V37.1611H94.3043V15.4006H101.994V9.40115H80.6147Z"/><path fill="#0052CC" fill-rule="evenodd" d="M62.6525 9.40115H71.1798L80.8569 37.1611H73.4629L72.0906 32.4858C68.7108 33.4782 65.1169 33.4782 61.7371 32.4858L60.3648 37.1611H52.9723L62.6525 9.40115ZM63.3583 26.968C64.5137 27.3074 65.7117 27.4797 66.9159 27.4798C68.1199 27.4811 69.3179 27.3101 70.4735 26.9722L66.9159 14.8537L63.3583 26.968Z" clip-rule="evenodd"/><path fill="#0052CC" fill-rule="evenodd" d="M143.061 9.40115H134.534L124.854 37.1611H132.248L133.621 32.4858C137 33.4782 140.594 33.4782 143.974 32.4858L145.346 37.1611H152.74L143.061 9.40115ZM138.798 27.4798C137.594 27.4797 136.396 27.3074 135.24 26.968L138.798 14.8537L142.355 26.9722C141.2 27.3101 140.002 27.4811 138.798 27.4798Z" clip-rule="evenodd"/><path fill="#0052CC" fill-rule="evenodd" d="M234.112 9.40115H242.639L252.318 37.1611H244.924L243.552 32.4858C240.172 33.4782 236.578 33.4782 233.198 32.4858L231.826 37.1611H224.432L234.112 9.40115ZM234.815 26.968C235.971 27.3074 237.169 27.4797 238.373 27.4798C239.577 27.4811 240.775 27.3101 241.93 26.9722L238.373 14.8537L234.815 26.968Z" clip-rule="evenodd"/></g></g></g><defs><linearGradient id="paint0_linear_93_14359" x1="20.3757" x2="11.6399" y1="21.5554" y2="36.6865" gradientUnits="userSpaceOnUse"><stop stop-color="#0052CC"/><stop offset="0.923" stop-color="#2684FF"/></linearGradient></defs></svg>

<svg xmlns="http://www.w3.org/2000/svg" fill="none" aria-hidden="true" viewBox="0 0 287 41"><path fill="url(#a)" d="M15.84 19.001a.96.96 0 0 0-1.635.178l-8.277 16.55a.99.99 0 0 0 .884 1.432H18.34a.953.953 0 0 0 .885-.547c2.486-5.138.98-12.95-3.385-17.613Z"/><path fill="#2684FF" d="M21.91 3.948A21.83 21.83 0 0 0 20.636 25.5l5.557 11.114a.988.988 0 0 0 .885.547h11.524a.988.988 0 0 0 .885-1.432S23.983 4.717 23.593 3.941a.934.934 0 0 0-1.683.007Z"/><path fill="#0052CC" d="M157.086 17.218c0 4.098 1.902 7.352 9.338 8.789 4.437.931 5.366 1.647 5.366 3.126 0 1.437-.931 2.367-4.056 2.367a22.89 22.89 0 0 1-10.774-2.916v6.675c2.239 1.099 5.197 2.324 10.689 2.324 7.775 0 10.859-3.467 10.859-8.62 0-4.858-2.577-7.14-9.844-8.703-4.014-.887-4.986-1.774-4.986-3.042 0-1.604 1.436-2.281 4.098-2.281 3.212 0 6.381.971 9.38 2.323v-6.38a21.199 21.199 0 0 0-9.169-1.901c-7.183 0-10.901 3.126-10.901 8.239Zm99.88-7.817v27.76h5.915V15.993l2.494 5.619 8.365 15.55h7.437V9.401h-5.915v17.914l-2.24-5.197L266.304 9.4h-9.338Zm-44.087 0h6.464v27.76h-6.464V9.401Zm-7.459 19.563c0-4.86-2.578-7.141-9.845-8.704-4.014-.887-4.986-1.774-4.986-3.042 0-1.604 1.437-2.281 4.098-2.281 3.212 0 6.381.971 9.381 2.323v-6.38a21.205 21.205 0 0 0-9.169-1.901c-7.183 0-10.901 3.126-10.901 8.239 0 4.098 1.901 7.352 9.337 8.789 4.437.931 5.366 1.647 5.366 3.126 0 1.437-.931 2.367-4.056 2.367a22.89 22.89 0 0 1-10.774-2.916v6.675c2.239 1.099 5.197 2.324 10.69 2.324 7.774 0 10.859-3.467 10.859-8.62Zm-98.553 8.197V9.401h6.506v21.76h8.873l-2.092 6h-13.287ZM80.615 9.401v6h7.183v21.76h6.506v-21.76h7.69v-6h-21.38Z"/><path fill="#0052CC" fill-rule="evenodd" d="M62.653 9.401h8.527l9.677 27.76h-7.394l-1.372-4.675c-3.38.992-6.974.992-10.354 0l-1.372 4.675h-7.393l9.68-27.76Zm.705 17.567a12.64 12.64 0 0 0 7.116.004l-3.558-12.118-3.558 12.114Zm79.703-17.567h-8.527l-9.68 27.76h7.394l1.373-4.675a18.38 18.38 0 0 0 10.353 0l1.372 4.675h7.394l-9.679-27.76Zm-4.263 18.079c-1.204 0-2.402-.173-3.558-.512l3.558-12.114 3.557 12.118a12.617 12.617 0 0 1-3.557.508Zm95.314-18.079h8.527l9.679 27.76h-7.394l-1.372-4.675c-3.38.992-6.974.992-10.354 0l-1.372 4.675h-7.394l9.68-27.76Zm.703 17.567c1.156.34 2.354.512 3.558.512 1.204.001 2.402-.17 3.557-.508l-3.557-12.118-3.558 12.114Z" clip-rule="evenodd"/><defs><linearGradient id="a" x1="20.376" x2="11.64" y1="21.555" y2="36.687" gradientUnits="userSpaceOnUse"><stop stop-color="#0052CC"/><stop offset=".923" stop-color="#2684FF"/></linearGradient></defs></svg>
